X:1
T:Partition sans titre
C:Compositeur / Arrangeur
L:1/8
M:4/4
I:linebreak $
K:D
V:1 treble nm="Violon" snm="Vln."
V:1
"G" BGFG EGDG | BGFG EEDF |"D" A3 G FDEF |"G" GFED"A" CFGA |"G" BGFG EGDG | BGFG EEDF | %6
"D" A3 G FDEF |1"G" GBAF G3 A :|2"G" GBAF G2 G2 |:"G" G2 GA GEDE | GEDC PB,2"D" A,D/F/ | %11
 A3 G FDEF |"G" GGFG EGDE |"G" G2 GA GEDE | GEDC PB,2"D" A,D/F/ | A3 G FDEF |1"G" GBAF G2 G2 :|2 %17
"G" GBAF G3 A |] %18
